X:12
T: SIST NO NIT LANG
N: E1008A
O: Europa, Mitteleuropa, Deutschland
R: Tanz - Lied, Liebe, Klage
M: 2/4
L: 1/16
K: F
FA | c3AB3G | AGABA2
FA | c3AB3G | A4z2
A2 | A3GG2B2 | B3AA2
c2 | fcAFGBAG | F4z2

